X: 39673
T: Tenpenny Bit, The
R: jig
M: 6/8
K: Adorian
|:g/f/|eAA eAA|BAB GBd|eAA eAA|def gag|
eAA eAA|BAB GBd|def gdB|BAG A2:|
|:d|eaa eaa|egg egg|eaa eaa|def gag|
eaa eaa|egg egg|def gdB|BAG A2:|
|:d|eaa a^ga|bab ged|eaa a^ga|bab g2 d|
eaa a^ga|bab ged|def gdB|BAA A2:|

